build/flags/Israel.svg

<svg xmlns="http://www.w3.org/2000/svg" fill="none" viewBox="0 0 28 28" focusable="false"><defs><filter id="Israel_svg__a"><feColorMatrix values="0 0 0 0 1 0 0 0 0 1 0 0 0 0 1 0 0 0 1 0"/></filter></defs><mask id="Israel_svg__b" width="28" height="20" x="0" y="4" maskUnits="userSpaceOnUse"><g filter="url(#Israel_svg__a)"><rect width="28" height="20" y="4" fill="#FFF" rx="3"/><rect width="27.5" height="19.5" x=".25" y="4.25" stroke="#F5F5F5" stroke-width=".5" rx="2.75"/></g></mask><path fill="none" d="M0 0H28V28H0z"/><rect width="28" height="20" y="4" fill="#FFF" rx="3"/><rect width="27.5" height="19.5" x=".25" y="4.25" stroke="#D6D8DD" stroke-width=".5" rx="2.75"/><g mask="url(#Israel_svg__b)"><path fill="#0E46D4" fill-rule="evenodd" d="M0 8L28 8L28 4L0 4L0 8Z"/><path d="M28 8L28 4L0 4L0 8L28 8Z"/><path fill="#0E46D4" fill-rule="evenodd" d="M0 24L28 24L28 20L0 20L0 24Z"/><path d="M28 24L28 20L0 20L0 24L28 24Z"/><path fill="#093EC5" fill-rule="evenodd" d="M9.53366 16.6667L12.4966 16.6667L14 19.3728L15.5034 16.6667L18.4663 16.6667L16.9849 14L18.4663 11.3333L15.5034 11.3333L14 8.62726L12.4966 11.3333L9.53366 11.3333L11.0151 14L9.53366 16.6667ZM11.3965 14.6864L10.6667 16L12.1263 16L11.3965 14.6864ZM12.8889 16L11.7778 14L12.8889 12L15.1111 12L16.2222 14L15.1111 16L12.8889 16ZM13.2593 16.6667L14 18L14.7407 16.6667L13.2593 16.6667ZM15.8738 16L17.3333 16L16.6035 14.6864L15.8738 16ZM16.6035 13.3136L17.3333 12L15.8738 12L16.6035 13.3136ZM14.7407 11.3333L14 10L13.2593 11.3333L14.7407 11.3333ZM12.1263 12L11.3965 13.3136L10.6667 12L12.1263 12Z"/></g></svg>

<svg xmlns="http://www.w3.org/2000/svg" fill="none" viewBox="0 0 28 28" focusable="false"><path fill="none" d="M0 0h28v28H0z"/><rect width="28" height="20" y="4" fill="#FFF" rx="3"/><rect width="27.5" height="19.5" x=".25" y="4.25" stroke="#D6D8DD" stroke-width=".5" rx="3"/><mask id="Israel_svg__a" width="28" height="20" x="0" y="4" mask-type="alpha" maskUnits="userSpaceOnUse"><rect width="28" height="20" y="4" fill="#FFF" rx="3"/><rect width="27.5" height="19.5" x=".25" y="4.25" stroke="#F5F5F5" stroke-width=".5" rx="3"/></mask><g mask="url(#Israel_svg__a)"><path fill="#0E46D4" fill-rule="evenodd" d="M0 8h28V4H0z"/><path d="M28 8V4H0v4z"/></g><g mask="url(#Israel_svg__a)"><path fill="#0E46D4" fill-rule="evenodd" d="M0 24h28v-4H0z"/><path d="M28 24v-4H0v4z"/></g><g mask="url(#Israel_svg__a)"><path fill="#093EC5" fill-rule="evenodd" d="M9.53 16.66h2.96L14 19.37l1.5-2.71h2.96L16.98 14l1.48-2.67H15.5L14 8.62l-1.51 2.71H9.53L11.01 14zm1.86-1.98L10.66 16h1.46zM12.88 16l-1.11-2 1.11-2h2.23l1.11 2-1.11 2zm.37.66L14 18l.74-1.34zm2.62-.66h1.46l-.73-1.32zm.73-2.69.73-1.31h-1.46zm-1.86-1.98L14 10l-.75 1.33zm-2.62.67-.73 1.31-.73-1.31z"/></g></svg>
